X: 19059
T: Ireland's Green Shore
R: polka
M: 2/4
K: Edorian
M:4/4
B|B2 AB d2 BA|(F/E/)D- D2- D2 (CD)|EA- AB G2 (E/D/)B,|E4- E2 zB|
B2 AB d2 BA|(F/E/)D- D2- D2 (CD)|EA- AB G2 ED|E4- E2 z||
B|Be- ee e2 BA|dB- B2- Bz zA|Be- ed B2 Ad|B4- B2 zA|
Be- ed B2 AG|(F/E/)D- D2- D2 (CD)|EA- AB G2 ED|E4- E2 z||

